X:36
T:Sheep Sheering, The
M:6/8
L:1/8
B:Thompson's Compleat Collection of 200 Favourite Country Dances, vol. 3 (London, 1773)
Z:Transcribed and edited by Flynn Titford-Mock, 2007
Z:abc's:AK/Fiddler's Companion
K:G
d2g B2g | ABG FED | dgB ced | cBA G3 :|
|: BGB cec | BGB cec | g2f g2d | cBA G3 :|

